X:1
T:Jaunava skaistā
T:poļu koļenda
T:oriģinālteksts: 17.-18. gs. atdz. pr. Andris Solims
T:Jaunava skaistā
T:(Śliczna Panienka)
C:poļu koļenda
Z:oriģinālteksts: 17.-18. gs.
Z:atdz. pr. Andris Solims
%%score [ ( 1 2 ) ( 3 4 ) ]
L:1/8
M:3/4
K:A
V:1 treble nm="P1"
V:2 treble 
V:3 bass nm="P2"
V:4 bass 
V:1
!p!"^Tranquillo" A2 A3 c | c2 B4 | GG G3 B | B2 A4 | A2 A3 c | c2 B4 | GG G3 B | B2 A4 | %8
w: 1. na- va|skais- tā|dzem- di- nā- ja|Jē- zu,|au- ti- ņos|tī- tu|ap- se- dza ar|sie- nu.|
w: 2. mī- ļā|Jau- nav',|tev nav žēl- sir-|dī- bas,|ka Die- va|Dē- lu|ie- vis- tī- ji|sie- nā?|
w: 3. ne- pa-|ras- ta|pār- mai- ņa šī|bi- ja,|– Na- za-|re- tes|zie- diņš uz- zied|sie- nā.|
w: 4. Ta- va|mī- la|de- ga tā kā|lies- ma,|to- mēr šo|sie- nu|ne- sa- de- dzi-|nā- ja.|
!f! e2 e3 d | d2 c4 | ee d3 c | c2 B4 | A2 A3 c | c2 B4 | GG G3 B | B2 A4 |] %16
w: 1. siens, uz|ku- ra|kā uz li- lij-|zie- da|Ma- ri- ja|gul- da|mai- go Bēr- nu|Jē- zu.|
w: 2. siens, tu|e- si|kā vis- dār- gāks|zie- diņš:|uz se- vis|gul- di|na- ba- dzī- go|Die- vu.|
w: 3. siens, kāds|brī- nums|no- ti- ka ar|te- vi,|jo tu kā|skais- ti|zie- di uz- zie-|dē- ji?|
w: 4. siens, vai|Kun- gu|sil- dīt ne- va-|rē- ji?|Lai mū- su|sir- dis|sa- sil- dī- tu|Jē- zu!|
V:2
 E2 ^D3 E | E2 E4 | EE E3 E | E2 E4 | E2 F3 E | E2 E4 | EE E3 E | E2 E4 | A2 =G3 F | E2 E4 | %10
 A=G F3 F | (E^DEF) (E=D) | C2 D3 E | E2 E4 | EE E3 E | E2 E4 |] %16
V:3
!p! C2 A,3 A, | A,2 G,4 | B,C D3 D | D2 C4 | C2 D3 A, | A,2 G,4 | B,C D3 D | D2 C4 |!f! C2 C3 D | %9
 B,2 A,4 | A,A, A,3 A, | A,2 G,4 | (A,G,) F,3 A, | A,2 G,4 | B,C D3 D | D2 C4 |] %16
V:4
 A,2 F,3 E, | E,2 E,4 | E,E, E,3 G, | A,2 A,4 | A,2 F,3 C, | E,2 E,4 | E,E, E,3 G, | A,2 A,4 | %8
 A,2 ^A,3 B, | G,2 A,4 | C,C, D,3 ^D, | E,2 E,4 | (F,E,) D,3 C, | (A,,C,) E,4 | E,E, E,3 G, | %15
 A,2 [A,,A,]4 |] %16

